X:3
T:The Sound of Sleat 
C:D MacKinnon
R:Reel
M:C|
L:1/8
Q:"74 bpm"
K:D
[|: ["no birl 1st"{gAGAG}]A2 {g}A>{d}B {g}B>d {G}d2 | {gef}e2 {A}e>d {g}e>f {e}f2 | {gAGAG}A2 {g}A>{d}B {g}B>d{G}d>e | {g}f>d{g}e>d {gBd}B2 {G}A2 :|]
{gfg}f2 {g}f>e {g}f>a {g}a2 | {ef}e2 {g}d>e {g}f>d{g}B<{d}A | {gfg}f2 {g}f>e {g}f>a {g}a>e | {g}f>d{g}e>d {gBd}B2 {G}A2 |
{gfg}f2 {g}f>e {g}f>a {g}a2 | {ef}e2 {g}d>e {g}f>d{g}B<{d}A | {gef}e2 {A}e>d {g}e>f{e}f>a | f>d{g}e>d {gBd}B2 {G}A2 ||
[|: {g}A<{d}A{g}A<{d}G {g}B<{d}B{g}B<{d}A | {Gdc}d2 {g}d>f {g}e>d{g}e<f | {g}A<{d}A{g}A<{d}G {g}B<{d}B{g}B<{d}A | {g}f>d{g}e>d {gBd}B2 {G}A2 :|]
{ag}a2 f>a {g}a>f {ag}a2 | {ef}e2 {g}d>e {g}f>d{g}B<{d}A | {ag}a2 f>a {g}a>f {ag}a2 | f>d{g}e>d {gBd}B2 {G}A2 |
{ag}a2 f>a {g}a>f {ag}a2 | {ef}e2 {g}d>e {g}f>d{g}B<{d}A | {Gdc}d2 {g}d>f {g}e>d{g}e<f | {g}f>d{g}e>d {gBd}B2 {G}A2 |]